X:920
T:Reel 920
L:1/8
M: 4/4
K: A Dorian
A3BA2GE|A2GABdef|A2AGAEEA|GEDGEAAG|A3BA2GE|A2GABded|A3BAGED|GABdeAA2:||:eAA2eAA2|g2fgedBd|eAA2eAeA|BdgdBAA2|eAA2eAe2|ggfgeddg|afgefdeg|dBGABAA2:|.abc